public/cards/wild.svg

<svg width="242" height="362" viewBox="0 0 242 362" fill="none" xmlns="http://www.w3.org/2000/svg">
<path d="M201 1.00012H41C18.9086 1.00012 1 18.9087 1 41.0001V321C1 343.092 18.9086 361 41 361H201C223.091 361 241 343.092 241 321V41.0001C241 18.9087 223.091 1.00012 201 1.00012Z" fill="white" stroke="black" stroke-width="2"/>
<path d="M201 21.0001H41C29.9543 21.0001 21 29.9544 21 41.0001V321C21 332.046 29.9543 341 41 341H201C212.046 341 221 332.046 221 321V41.0001C221 29.9544 212.046 21.0001 201 21.0001Z" fill="black"/>
<path fill-rule="evenodd" clip-rule="evenodd" d="M181 81C92.6344 81 21 152.634 21 241C21 263.091 38.9086 281 61 281C149.366 281 221 209.366 221 121C221 98.9086 203.091 81 181 81Z" fill="white"/>
<path fill-rule="evenodd" clip-rule="evenodd" d="M32.75 181C25.2373 199.542 21 219.763 21 241C21 263.091 38.9086 281 61 281L121 181H32.75Z" fill="#FFAA00"/>
<path fill-rule="evenodd" clip-rule="evenodd" d="M121 181L61 281C128.129 281 185.502 239.611 209.25 181H121Z" fill="#55AA55"/>
<path fill-rule="evenodd" clip-rule="evenodd" d="M181 81C113.871 81 56.4976 122.389 32.75 181H121L181 81Z" fill="#E80000"/>
<path fill-rule="evenodd" clip-rule="evenodd" d="M181 81L121 181H209.25C216.763 162.458 221 142.237 221 121C221 98.9086 203.091 81 181 81Z" fill="#5555FF"/>
<path fill-rule="evenodd" clip-rule="evenodd" d="M33.9375 55.9999C32.0593 60.6353 31 65.6907 31 70.9999C31 76.5227 35.4772 80.9999 41 80.9999L56 55.9999H33.9375Z" fill="#FFAA00"/>
<path fill-rule="evenodd" clip-rule="evenodd" d="M56 55.9999L41 80.9999C57.7822 80.9999 72.1256 70.6526 78.0625 55.9999H56Z" fill="#55AA55"/>
<path fill-rule="evenodd" clip-rule="evenodd" d="M71 30.9999C54.2178 30.9999 39.8744 41.3472 33.9375 55.9999H56L71 30.9999Z" fill="#E80000"/>
<path fill-rule="evenodd" clip-rule="evenodd" d="M71 30.9999L56 55.9999H78.0625C79.9407 51.3644 81 46.309 81 40.9999C81 35.477 76.5228 30.9999 71 30.9999Z" fill="#5555FF"/>
<path fill-rule="evenodd" clip-rule="evenodd" d="M163.938 306C162.059 310.635 161 315.691 161 321C161 326.523 165.477 331 171 331L186 306H163.938Z" fill="#FFAA00"/>
<path fill-rule="evenodd" clip-rule="evenodd" d="M186 306L171 331C187.782 331 202.126 320.653 208.062 306H186Z" fill="#55AA55"/>
<path fill-rule="evenodd" clip-rule="evenodd" d="M201 281C184.218 281 169.874 291.347 163.938 306H186L201 281Z" fill="#E80000"/>
<path fill-rule="evenodd" clip-rule="evenodd" d="M201 281L186 306H208.062C209.941 301.364 211 296.309 211 291C211 285.477 206.523 281 201 281Z" fill="#5555FF"/>
<path d="M181 81C113.871 81 56.4976 122.389 32.75 181C25.2373 199.542 21 219.763 21 241C21 263.091 38.9086 281 61 281C128.129 281 185.502 239.611 209.25 181C216.763 162.458 221 142.237 221 121C221 98.9086 203.091 81 181 81Z" stroke="white" stroke-width="4"/>
<path d="M71 31C54.2178 31 39.8744 41.3473 33.9375 56C32.0593 60.6355 31 65.6908 31 71C31 76.5229 35.4772 81 41 81C57.7822 81 72.1256 70.6527 78.0625 56C79.9407 51.3645 81 46.3092 81 41C81 35.4771 76.5228 31 71 31Z" stroke="white" stroke-width="4"/>
<path d="M201 281C184.218 281 169.874 291.347 163.938 306C162.059 310.635 161 315.691 161 321C161 326.523 165.477 331 171 331C187.782 331 202.126 320.653 208.062 306C209.941 301.365 211 296.309 211 291C211 285.477 206.523 281 201 281Z" stroke="white" stroke-width="4"/>
</svg>

<svg xmlns="http://www.w3.org/2000/svg" width="242" height="362" fill="none"><path fill="#fff" stroke="#000" stroke-width="2" d="M201 1H41C18.909 1 1 18.91 1 41v280c0 22.092 17.909 40 40 40h160c22.091 0 40-17.908 40-40V41c0-22.091-17.909-40-40-40z"/><path fill="#000" d="M201 21H41c-11.046 0-20 8.954-20 20v280c0 11.046 8.954 20 20 20h160c11.046 0 20-8.954 20-20V41c0-11.046-8.954-20-20-20z"/><path fill="#fff" fill-rule="evenodd" d="M181 81C92.634 81 21 152.634 21 241c0 22.091 17.909 40 40 40 88.366 0 160-71.634 160-160 0-22.091-17.909-40-40-40z" clip-rule="evenodd"/><path fill="#FA0" fill-rule="evenodd" d="M32.75 181C25.237 199.542 21 219.763 21 241c0 22.091 17.909 40 40 40l60-100H32.75z" clip-rule="evenodd"/><path fill="#5A5" fill-rule="evenodd" d="M121 181 61 281c67.129 0 124.502-41.389 148.25-100H121z" clip-rule="evenodd"/><path fill="#E80000" fill-rule="evenodd" d="M181 81c-67.129 0-124.502 41.389-148.25 100H121l60-100z" clip-rule="evenodd"/><path fill="#55F" fill-rule="evenodd" d="m181 81-60 100h88.25c7.513-18.542 11.75-38.763 11.75-60 0-22.091-17.909-40-40-40z" clip-rule="evenodd"/><path fill="#FA0" fill-rule="evenodd" d="M33.938 56A39.839 39.839 0 0 0 31 71c0 5.523 4.477 10 10 10l15-25H33.937z" clip-rule="evenodd"/><path fill="#5A5" fill-rule="evenodd" d="M56 56 41 81c16.782 0 31.126-10.347 37.063-25H56z" clip-rule="evenodd"/><path fill="#E80000" fill-rule="evenodd" d="M71 31c-16.782 0-31.126 10.347-37.063 25H56l15-25z" clip-rule="evenodd"/><path fill="#55F" fill-rule="evenodd" d="M71 31 56 56h22.063A39.84 39.84 0 0 0 81 41c0-5.523-4.477-10-10-10z" clip-rule="evenodd"/><path fill="#FA0" fill-rule="evenodd" d="M163.938 306A39.823 39.823 0 0 0 161 321c0 5.523 4.477 10 10 10l15-25h-22.062z" clip-rule="evenodd"/><path fill="#5A5" fill-rule="evenodd" d="m186 306-15 25c16.782 0 31.126-10.347 37.062-25H186z" clip-rule="evenodd"/><path fill="#E80000" fill-rule="evenodd" d="M201 281c-16.782 0-31.126 10.347-37.062 25H186l15-25z" clip-rule="evenodd"/><path fill="#55F" fill-rule="evenodd" d="m201 281-15 25h22.062A39.827 39.827 0 0 0 211 291c0-5.523-4.477-10-10-10z" clip-rule="evenodd"/><path stroke="#fff" stroke-width="4" d="M181 81c-67.129 0-124.502 41.389-148.25 100C25.237 199.542 21 219.763 21 241c0 22.091 17.909 40 40 40 67.129 0 124.502-41.389 148.25-100 7.513-18.542 11.75-38.763 11.75-60 0-22.091-17.909-40-40-40zM71 31c-16.782 0-31.126 10.347-37.063 25A39.84 39.84 0 0 0 31 71c0 5.523 4.477 10 10 10 16.782 0 31.126-10.347 37.063-25A39.84 39.84 0 0 0 81 41c0-5.523-4.477-10-10-10zm130 250c-16.782 0-31.126 10.347-37.062 25A39.823 39.823 0 0 0 161 321c0 5.523 4.477 10 10 10 16.782 0 31.126-10.347 37.062-25A39.823 39.823 0 0 0 211 291c0-5.523-4.477-10-10-10z"/></svg>
